assets/icons/qvision/16mp.svg

<svg xmlns="http://www.w3.org/2000/svg" height="24" viewBox="0 0 24 24" width="24"><path d="M0 0h24v24H0V0z" fill="none"/><path d="M13.5 9H15v1.5h-1.5zM19 3H5c-1.1 0-2 .9-2 2v14c0 1.1.9 2 2 2h14c1.1 0 2-.9 2-2V5c0-1.1-.9-2-2-2zm-7 15.5h-1.5V14h-1v3H8v-3H7v4.5H5.5v-5c0-.55.45-1 1-1H11c.55 0 1 .45 1 1v5zm3.5 0H14v-6h3.5c.55 0 1 .45 1 1V16c0 .55-.45 1-1 1h-2v1.5zM10 5.5v6H8.5V7H7V5.5h3zm3 6c-.55 0-1-.45-1-1v-4c0-.55.45-1 1-1h3.5V7h-3v1h2c.55 0 1 .45 1 1v1.5c0 .55-.45 1-1 1H13zm2.5 2.5H17v1.5h-1.5z"/></svg>

<svg width="24" height="24" viewBox="0 0 24 24" fill="none" xmlns="http://www.w3.org/2000/svg">
<g clip-path="url(#clip0_147_3127)">
<path d="M13.5 9H15V10.5H13.5V9ZM19 3H5C3.9 3 3 3.9 3 5V19C3 20.1 3.9 21 5 21H19C20.1 21 21 20.1 21 19V5C21 3.9 20.1 3 19 3ZM12 18.5H10.5V14H9.5V17H8V14H7V18.5H5.5V13.5C5.5 12.95 5.95 12.5 6.5 12.5H11C11.55 12.5 12 12.95 12 13.5V18.5ZM15.5 18.5H14V12.5H17.5C18.05 12.5 18.5 12.95 18.5 13.5V16C18.5 16.55 18.05 17 17.5 17H15.5V18.5ZM10 5.5V11.5H8.5V7H7V5.5H10ZM13 11.5C12.45 11.5 12 11.05 12 10.5V6.5C12 5.95 12.45 5.5 13 5.5H16.5V7H13.5V8H15.5C16.05 8 16.5 8.45 16.5 9V10.5C16.5 11.05 16.05 11.5 15.5 11.5H13ZM15.5 14H17V15.5H15.5V14Z" fill="#323232"/>
</g>
<defs>
<clipPath id="clip0_147_3127">
<rect width="24" height="24" fill="white"/>
</clipPath>
</defs>
</svg>
